!!!OTL: Fenstergang (2-74) S. 223
!!!id: P0947
**kern
*clefG2
*k[b-]
*F:
{8f
=1
8f
8f
16f
16f
8f
8g
8a
=2
4g}
4.r
=3
{8g
=4
4g
8g
8g
8a
8b-
=5
4a}
4.r
=6
{8cc
=7
4cc
8a
4f
8cc
=8
4cc
8a
8f
8a
8cc
=9
4dd
8b-
4g}
=10
{8f
=11
4e
8g
8cc
8cc
8b-
=12
4a}
4.r
=13
{8f
=14
4f
8f
8f
8g
8a
=15
4g}
4.r
=16
{8g
=17
4g
8g
8g
8a
8b-
=18
4a}
4.r
=19
{8cc
=20
8cc
8cc
8a
8f
8a
8cc
=21
4dd
8b-
4g}
=22
{8f
=23
4e
8g
4cc
8b-
=24
4a}
4.r
==
*-
!!!minrhy: 16
!!!meters: 6/8 ]  ZZ[8
!!!cut: Fenstergang (2-74) S. 223
!!!reg: Lothringen
!!!trd: PINCK, Louis: Verklingende Weisen, Bd 2, Metz 1928
!!!rhy1: X_  X_X_XXX_X_X_  X__0__.
!!!rhy2: X_  X__X_X_X_X_  X__0__.
!!!key: P0947  16  F 6/8 ]  ZZ[8
!!!mod: HEPTATONIK IONISCH]  AMBITUS[7b
!!!kad: 23232323
!!!akz: 112_223_515162_-753_112_223_5162_-753_
!!!fot: 'a__as'b__c__av_as'd__cv_
!!!for: 'a__b__c__b__b__b__d__cw_
!!!fok: '/__/__Sd_^a_/__/__Sd_^a_
!! PHRAS[AUFTAKTIG]
!!!fkt: Fenstergang
!! LOTH VKL
!! PR[30] 2K[3] 2G[19] 3K[3] 3G[5] 4A[0] 4Ü[0] 5A[3] 6K[0] 6G[0]
!! 7K[0] 7G[0] 8A[0] MEHR[0] SI[32] ABS[37] SR[22] SP[11]
!! ST[6] 2k[3] 2g[30] 3k[3] 3g[0] 4d[0] 4ü[0] 5d[3] 6k[0] 6g[0]
!! 7k[0] 7g[0] 8d[0] mehr[0] si[38] dm[-6] sr[32] sp[5]
!! 1F[5] 2F[81] 3F[12] 4F[0] LF[0] 2P[0] 3P[2] 4P[0] TRI[0] DF[4] AB[42]
!! TF[0] U3K[0] U3[0] U4[0] U4Ü[0] U5[3] U6K[0] U6[8] U7K[0] U7[0]
!! N1[32] N2K[0] N2[21] N3K[0] N3[34] N4[3] N4Ü[0] N5[0] N6K[0] N6[0]
!!!n7k: 0] N7[0] O1[0] O2K[0] O2[0] O3K[0] O3[0] HÖ[0
